!!!COM: Palestrina, Giovanni Perluigi da
!!!OPR: Papae Marcelli
!!!OTL: Sanctus
**kern	**kern	**kern	**kern	**kern	**kern
*Ibass	*Ibass	*Itenor	*Itenor	*Icalto	*Icant
!Bassus 2	!Bassus 1	!Tenor 2	!Tenor 1	!Altus	!Cantus
*clefF4	*clefF4	*clefGv2	*clefGv2	*clefG2	*clefG2
*k[]	*k[]	*k[]	*k[]	*k[]	*k[]
*C:ion	*C:ion	*C:ion	*C:ion	*C:ion	*C:ion
*M4/2	*M4/2	*M4/2	*M4/2	*M4/2	*M4/2
=1	=1	=1	=1	=1	=1
0c	0r	0e	0r	[0g	1r
.	.	.	.	.	[1cc
=2	=2	=2	=2	=2	=2
0G	0r	0d	0r	0g]	2cc]
.	.	.	.	.	4b
.	.	.	.	.	4a
.	.	.	.	.	1b
=3	=3	=3	=3	=3	=3
1C	0c	1c	0e	0g	2.cc
.	.	.	.	.	4dd
[1c	.	1r	.	.	2ee
.	.	.	.	.	2cc
=4	=4	=4	=4	=4	=4
2c]	0G	0g	0d	1r	1dd
4B	.	.	.	.	.
4A	.	.	.	.	.
1B	.	.	.	1d	2.gg
.	.	.	.	.	4ff
=5	=5	=5	=5	=5	=5
1c	1C	2.g	1c	2.e	4ee
.	.	.	.	.	4dd
.	.	.	.	.	4cc
.	.	4f	.	4f	4b
1C	[1c	2e	2.e	[1g	2cc
.	.	2c	.	.	2ee
.	.	.	4f	.	.
=6	=6	=6	=6	=6	=6
0G	2c]	0d	2g	1g]	0dd
.	4B	.	2d	.	.
.	4A	.	.	.	.
.	1B	.	1g	2d	.
.	.	.	.	[2g	.
=7	=7	=7	=7	=7	=7
0C	1c	2.g	2e	4g]	1cc
.	.	.	.	4f	.
.	.	.	4c	4e	.
.	.	4f	4d	4d	.
.	1C	1e	4e	1c	2.g
.	.	.	4f	.	.
.	.	.	[2g	.	.
.	.	.	.	.	4a
=8	=8	=8	=8	=8	=8
1r	[0G	1d	2g]	2.B	4b
.	.	.	.	.	4cc
.	.	.	4G	.	1dd
.	.	.	4A	4c	.
2r	.	4G	4B	1d	.
.	.	4A	4c	.	.
[2G	.	4B	[2d	.	2g
.	.	4c	.	.	.
=9	=9	=9	=9	=9	=9
2G]	0G]	2d	2d]	0g	2b
2C	.	2e	1c	.	2cc
1G	.	1d	.	.	1dd
.	.	.	2B	.	.
=10	=10	=10	=10	=10	=10
0C	1r	4c	1c	2e	0ee
.	.	4d	.	.	.
.	.	4e	.	4c	.
.	.	4f	.	4d	.
.	[1c	2g	4c	4e	.
.	.	.	4d	4f	.
.	.	2c	4e	[2g	.
.	.	.	4f	.	.
=11	=11	=11	=11	=11	=11
1c	2c]	2e	2g	2g]	0cc
.	2F	2f	2a	1f	.
1C	1c	2g	1g	.	.
.	.	[2c	.	2e	.
=12	=12	=12	=12	=12	=12
2r	2.F	2c]	1f	1f	2.a
2.c	.	2.A	.	.	.
.	4G	.	.	.	4b
.	[1A	.	1e	2r	4cc
4B	.	4B	.	.	4dd
[2A	.	4c	.	[2cc	[2ee
.	.	4d	.	.	.
=13	=13	=13	=13	=13	=13
2A]	0A]	2e	2c	4cc]	2ee]
.	.	.	.	4b-	.
2D	.	2f	2d	4a	1dd
.	.	.	.	4g	.
1A	.	1e	2e	1a	.
.	.	.	[2a	.	2cc#
=14	=14	=14	=14	=14	=14
2r	[0d	4d	4a]	2f	[0dd
.	.	4e	4g	.	.
1D	.	4f	4f	4d	.
.	.	4g	4e	4e	.
.	.	2a	4d	4f	.
.	.	.	4e	4g	.
2D	.	[2d	4f	[2a	.
.	.	.	4g	.	.
=15	=15	=15	=15	=15	=15
2F#	0d]	4d]	2a	2a]	0dd]
.	.	4c	.	.	.
2G	.	2B	2.d	1g	.
1D	.	1A	.	.	.
.	.	.	4c	.	.
.	.	.	2A	2f#	.
=16	=16	=16	=16	=16	=16
0G	2r	2G	[0B	1g	2r
.	1G	1g	.	.	1dd
.	.	.	.	2r	.
.	2G	2d	.	[2g	2dd
=17	=17	=17	=17	=17	=17
0r	1G	2d	1B]	2g]	1dd
.	.	4g	.	2g	.
.	.	4f	.	.	.
.	1c	4e	1r	1g	1ee
.	.	4d	.	.	.
.	.	2c	.	.	.
=18	=18	=18	=18	=18	=18
0r	1A	1e	1r	1a	1cc
.	1d	1d	2r	1f	1dd
.	.	.	2d	.	.
=19	=19	=19	=19	=19	=19
0r	1G	0r	2d	1.g	1b
.	.	.	2d	.	.
.	1c	.	2e	.	[1cc
.	.	.	[2c	2e	.
=20	=20	=20	=20	=20	=20
0r	0F	0r	2c]	1.f	2cc]
.	.	.	2.d	.	2b
.	.	.	.	.	1a
.	.	.	4c	.	.
.	.	.	[2c	2e	.
=21	=21	=21	=21	=21	=21
2r	0G	2r	2c]	1d	1g
1G	.	1d	4B	.	.
.	.	.	4A	.	.
.	.	.	1B	1r	2r
2G	.	2d	.	.	[2g
=22	=22	=22	=22	=22	=22
1G	1r	1d	1B	1r	2g]
.	.	.	.	.	2g
[1c	[1C	1e	1c	2r	1g
.	.	.	.	[2g	.
=23	=23	=23	=23	=23	=23
0c]	2C]	2e	0r	2g]	4cc
.	.	.	.	.	4dd
.	2C	4c	.	2g	4ee
.	.	4d	.	.	4ff
.	1C	4e	.	1g	1gg
.	.	4f	.	.	.
.	.	4g	.	.	.
.	.	4e	.	.	.
=24	=24	=24	=24	=24	=24
1A	1F	2.f	0r	1a	1cc
.	.	4g	.	.	.
1d	1D	2a	.	1f	2.ff
.	.	2d	.	.	.
.	.	.	.	.	4ee
=25	=25	=25	=25	=25	=25
1B	1G	1d	2r	2.g	4dd
.	.	.	.	.	4cc
.	.	.	1g	.	2dd
.	.	.	.	4f	.
[1c	1C	1r	.	4e	2ee
.	.	.	.	4d	.
.	.	.	2g	[2e	2cc
=26	=26	=26	=26	=26	=26
2c]	1G	0r	1g	2e]	1dd
2B-	.	.	.	1d	.
1A	1r	.	1a	.	2r
.	.	.	.	2c#	[2a
=27	=27	=27	=27	=27	=27
0D	2r	1r	2.f	2.d	2a]
.	1d	.	.	.	2a
.	.	.	4g	4e	.
.	.	2r	2a	4f	1a
.	.	.	.	4g	.
.	2d	[2d	2f	2a	.
=28	=28	=28	=28	=28	=28
1.G	1d	2d]	2g	1g	1b
.	.	2d	2.G	.	.
.	1B	1d	.	2r	2.g
.	.	.	4A	.	.
2G	.	.	4B	[2g	.
.	.	.	4c	.	4a
=29	=29	=29	=29	=29	=29
1G	1G	1.B	2d	2g]	4b
.	.	.	.	.	4cc
.	.	.	2d	2g	2dd
1E	1B	.	[1e	1g	2g
.	.	[2G	.	.	[2gg
=30	=30	=30	=30	=30	=30
1C	1c	2G]	1e]	2e	4gg]
.	.	.	.	.	4ff
.	.	2.g	.	2c	2.ee
2.E	[1G	.	2r	[1g	.
.	.	4f	.	.	4dd
.	.	2e	[2g	.	2cc
4F	.	.	.	.	.
=31	=31	=31	=31	=31	=31
2G	0G]	2d	4g]	1g]	2b
.	.	.	4f	.	.
2C	.	2c	2e	.	1cc
1G	.	1d	2d	1g	.
.	.	.	2g	.	2b
=32	=32	=32	=32	=32	=32
0C	1r	1c	0e	1g	0cc
.	1c	2r	.	2r	.
.	.	2e	.	2g	.
=33	=33	=33	=33	=33	=33
0r	2c	2e	2r	2g	0r
.	2c	2e	2c	2g	.
.	1A	4f	2c	1cc	.
.	.	4e	.	.	.
.	.	4e	2c	.	.
.	.	8d	.	.	.
.	.	8c	.	.	.
=34	=34	=34	=34	=34	=34
0r	2G	1d	1g	1b	1r
.	2G	.	.	.	.
.	4A	2c	2e	2.a	2r
.	4G	.	.	.	.
.	4F	2A	[2a	.	2cc
.	4G	.	.	4g	.
=35	=35	=35	=35	=35	=35
0r	4A	1c	2a]	2f	2cc
.	4B	.	.	.	.
.	1c	.	2.g	2e	2cc
.	.	1G	.	1d	2.gg
.	.	.	4f	.	.
.	2B	.	2d	.	.
.	.	.	.	.	4ff
=36	=36	=36	=36	=36	=36
2r	1c	1r	[0e	2c	4ee
.	.	.	.	.	4dd
2c	.	.	.	2g	2ee
2c	1C	2r	.	2g	2cc
2c	.	2c	.	2g	[2ee
=37	=37	=37	=37	=37	=37
1A	0r	2c	1e]	1cc	2ee]
.	.	2c	.	.	4dd
.	.	.	.	.	4cc
2G	.	1g	1r	2b	1dd
2G	.	.	.	2b	.
=38	=38	=38	=38	=38	=38
4A	0r	2e	2r	1.a	2cc
4G	.	.	.	.	.
4F	.	1f	2c	.	2a
4G	.	.	.	.	.
4A	.	.	2c	.	1cc
4B	.	.	.	.	.
[2c	.	2e	2c	2g	.
=39	=39	=39	=39	=39	=39
2c]	1G	0d	0g	2r	1dd
4B	.	.	.	1d	.
4A	.	.	.	.	.
1B	2G	.	.	.	2r
.	2G	.	.	[2g	2g
=40	=40	=40	=40	=40	=40
2c	0c	1c	1e	4g]	2g
.	.	.	.	4f	.
2C	.	.	.	4e	2g
.	.	.	.	4d	.
2C	.	2r	1g	2.e	1cc
2C	.	2c	.	.	.
.	.	.	.	8f	.
.	.	.	.	8g	.
=41	=41	=41	=41	=41	=41
1F	2A	2c	2.f	0a	2cc
.	2A	2c	.	.	1a
.	.	.	4g	.	.
2D	2.d	1f	2a	.	.
2D	.	.	2A	.	[2dd
.	4c	.	.	.	.
=42	=42	=42	=42	=42	=42
1G	4B	2d	2.B	0g	4dd]
.	4A	.	.	.	4cc
.	2.G	2d	.	.	4b
.	.	.	4c	.	4a
1G	.	1g	2d	.	1b
.	4F	.	.	.	.
.	4E	.	2G	.	.
.	4D	.	.	.	.
=43	=43	=43	=43	=43	=43
2r	1C	1e	2r	2r	1cc
1c	.	.	1e	1g	.
.	1G	1r	.	.	1r
2B	.	.	2d	2g	.
=44	=44	=44	=44	=44	=44
2c	0r	0r	2e	2g	2r
1A	.	.	2.c	2.f	1cc
.	.	.	4A	4e	.
2G	.	.	2B	[2e	2b
=45	=45	=45	=45	=45	=45
1F	0r	0r	2.A	4e]	2cc
.	.	.	.	8d	.
.	.	.	.	8c	.
.	.	.	.	2d	1a
.	.	.	4B	.	.
1E	.	.	2c	[1e	.
.	.	.	2B	.	2g#
=46	=46	=46	=46	=46	=46
1A	2r	2r	1c	1e]	4a
.	.	.	.	.	4b
.	1c	1e	.	.	4cc
.	.	.	.	.	4dd
1r	.	.	2r	1r	4ee
.	.	.	.	.	4ff
.	2B	2d	2g	.	2gg
=47	=47	=47	=47	=47	=47
2r	2c	1e	2g	0r	0ee
1c	1A	.	2.a	.	.
.	.	1e	.	.	.
.	.	.	4g	.	.
2B	2G	.	2e	.	.
=48	=48	=48	=48	=48	=48
2c	1F	1A	4f	2r	0r
.	.	.	4e	.	.
1A	.	.	4c	1cc	.
.	.	.	4d	.	.
.	1E	2r	1e	.	.
2G#	.	2e	.	2b	.
=49	=49	=49	=49	=49	=49
1A	0r	2e	1c	2cc	2r
.	.	2e	.	1a	1cc
1E	.	2.e	2r	.	.
.	.	.	2e	2g#	2b
.	.	4d	.	.	.
=50	=50	=50	=50	=50	=50
2A	2r	4c	2e	1a	2cc
.	.	4A	.	.	.
4F	1F	1a	2f	.	4a
4G	.	.	.	.	4b
4A	.	.	[1c	2f	4cc
4F	.	.	.	.	4dd
2c	2E	2g	.	2g	2ee
=51	=51	=51	=51	=51	=51
0A	2F	2.f	2c]	[0a	2cc
.	1D	.	2d	.	1ff
.	.	4e	.	.	.
.	.	2d	2r	.	.
.	2C#	2e	2A	.	[2ee
=52	=52	=52	=52	=52	=52
1r	1D	1f	2A	0a]	2ee]
.	.	.	2d	.	2dd
2r	1A	2.e	1c	.	1ee
[2c	.	.	.	.	.
.	.	8d	.	.	.
.	.	8c	.	.	.
=53	=53	=53	=53	=53	=53
2c]	1r	1d	1G	1g	1.gg
2B	.	.	.	.	.
2c	2r	1c	2.c	2e	.
2A	[2c	.	.	2f	2ff
.	.	.	4d	.	.
=54	=54	=54	=54	=54	=54
1G	2c]	2r	4e	2g	2ee
.	.	.	4f	.	.
.	2B	1G	2.g	2d	2.dd
1C	2c	.	.	2.e	.
.	.	.	4e	.	4cc
.	2A	2A	2c	.	[2cc
.	.	.	.	4f	.
=55	=55	=55	=55	=55	=55
1r	0G	4B-	0d	1g	2cc]
.	.	4G	.	.	.
.	.	2.g	.	.	4b
.	.	.	.	.	4a
1G	.	.	.	1g	1b
.	.	4f	.	.	.
.	.	2d	.	.	.
=56	=56	=56	=56	=56	=56
2E	2C	2e	[0c	2r	[0cc
4F	1F	4A	.	1a	.
4G	.	4B	.	.	.
4A	.	4c	.	.	.
4B	.	4d	.	.	.
2c	2E	2e	.	2g	.
=57	=57	=57	=57	=57	=57
2.A	2.F	2r	0c]	2a	0cc]
.	.	1a	.	1f	.
4B	4G	.	.	.	.
1c	4A	.	.	.	.
.	4B	.	.	.	.
.	2c	2g	.	2e	.
=58	=58	=58	=58	=58	=58
0F	1A	2a	[0c	2.f	[0cc
.	.	1f	.	.	.
.	.	.	.	4g	.
.	1F	.	.	1a	.
.	.	4e	.	.	.
.	.	4d	.	.	.
=59	=59	=59	=59	=59	=59
0C	0G	0e	0c]	0g	0cc]
=60	=60	=60	=60	=60	=60
0r	0G	0d	0r	0g	0b
=61	=61	=61	=61	=61	=61
0r	1c	1e	0r	1g	1cc
.	1A	1e	.	1a	1cc
=62	=62	=62	=62	=62	=62
0r	1d	1f#	0r	1a	1dd
.	1G	[1g	.	1b	1dd
=63	=63	=63	=63	=63	=63
0D	1.d	2g]	1r	0a	0dd
.	.	4f#	.	.	.
.	.	4e	.	.	.
.	.	1f#	[1d	.	.
.	2c	.	.	.	.
=64	=64	=64	=64	=64	=64
1G	1B	2g	1d]	1g	1dd
.	.	1G	.	.	.
1C	1c	.	1g	1e	1ee
.	.	[2c	.	.	.
=65	=65	=65	=65	=65	=65
1F	[0A	2c]	1c	0a	1.ff
.	.	1A	.	.	.
1D	.	.	1f	.	.
.	.	[2a	.	.	4ee
.	.	.	.	.	4dd
=66	=66	=66	=66	=66	=66
2A	0A]	4a]	2e	0a	2cc#
.	.	4g	.	.	.
2D	.	2f	1d	.	2dd
[1A	.	1e	.	.	1ee
.	.	.	2c#	.	.
=67	=67	=67	=67	=67	=67
1A]	0D	1d	1d	1f	2.ff
.	.	.	.	.	4ee
1r	.	2.f	1A	1a	4dd
.	.	.	.	.	4cc#
.	.	.	.	.	[2dd
.	.	4e	.	.	.
=68	=68	=68	=68	=68	=68
1r	0G	2d	2B	1g	4dd]
.	.	.	.	.	4b
.	.	1c	2c	.	2ee
[1G	.	.	1d	1g	1dd
.	.	2B	.	.	.
=69	=69	=69	=69	=69	=69
1G]	0C	1c	1e	2r	1cc
.	.	.	.	1g	.
1c	.	1e	2r	.	[1cc
.	.	.	[2c	[2cc	.
=70	=70	=70	=70	=70	=70
1A	1F	1a	2c]	2cc]	1cc]
.	.	.	1f	2.a	.
1d	1D	1f	.	.	1ff
.	.	.	.	4g	.
.	.	.	[2d	2a	.
=71	=71	=71	=71	=71	=71
1B	1G	2.g	2d]	1b	1dd
.	.	.	1g	.	.
.	.	4f	.	.	.
2.c	1C	4e	.	1g	1ee
.	.	4d	.	.	.
.	.	[2c	2e	.	.
4B	.	.	.	.	.
=72	=72	=72	=72	=72	=72
4A	2.F	2c]	1f	0a	1cc
4G	.	.	.	.	.
4F	.	2.A	.	.	.
4E	4G	.	.	.	.
1F	2.A	.	1c	.	1cc
.	.	4F	.	.	.
.	.	[2f	.	.	.
.	4B	.	.	.	.
=73	=73	=73	=73	=73	=73
0C	1c	2f]	1r	2g	1cc
.	.	4e	.	1g	.
.	.	4d	.	.	.
.	1C	1e	[1c	.	1r
.	.	.	.	[2cc	.
=74	=74	=74	=74	=74	=74
0r	0F	2.f	1c]	4cc]	0a
.	.	.	.	4b	.
.	.	.	.	4a	.
.	.	8e	.	4g	.
.	.	8d	.	.	.
.	.	2c	[1f	2a	.
.	.	[2A	.	2f	.
=75	=75	=75	=75	=75	=75
0r	1D	2A]	1f]	1a	1dd
.	.	1d	.	.	.
.	1G	.	1d	1g	1b
.	.	[2G	.	.	.
=76	=76	=76	=76	=76	=76
0C	1C	2G]	2.g	2.e	0ee
.	.	1g	.	.	.
.	.	.	4f	4f	.
.	1c	.	4e	1g	.
.	.	.	4d	.	.
.	.	2e	[2c	.	.
=77	=77	=77	=77	=77	=77
1F	1A	2.a	2c]	2.f	1cc
.	.	.	1A	.	.
.	.	4g	.	4g	.
1D	1d	4f	.	1a	1ff
.	.	4e	.	.	.
.	.	2f	[2d	.	.
=78	=78	=78	=78	=78	=78
1G	1B	2g	2d]	[0g	2dd
.	.	2d	1G	.	2.gg
[1C	1c	2.e	.	.	.
.	.	.	.	.	4ff
.	.	.	[2g	.	[2ee
.	.	4d	.	.	.
=79	=79	=79	=79	=79	=79
1C]	0G	4e	4g]	0g]	4ee]
.	.	4f	4f	.	4dd
.	.	2.g	2e	.	1cc
1G	.	.	1d	.	.
.	.	4f	.	.	.
.	.	2d	.	.	2b
=80	=80	=80	=80	=80	=80
0C	0G	0e	0c	0g	0cc
==	==	==	==	==	==
*-	*-	*-	*-	*-	*-
!!!CDT: 1525/^1526/-1594/2/2
!!!OCY: Italia
!!!AGN: Mass (Free)
!!!AST: renaissance, vocal
!!!ASW: Chanson 1533 (Lupi or Cadéac)
!!!PWK: Masses, Book 2
!!!RNB: Cadence finals: G
!!!YOR: Le Opere Complete, v. 4, p. 167
!!!YOO: Rome, Italy: Fratelli Scalera
!!!END: 1992//
!!!EED: John Miller
!!!YEC: Copyright 2000, John Miller
!!!YEN: United States of America
!!!YEM: Rights to all derivative electronic formats reserved.
!!!YEM: Refer to licensing agreement for further details.
!!!YEM: This file must be accompanied by the licensing agreement.
!!!YEM: A copy of the licensing agreement may be found at http://www.music-cog.ohio-state.edu/HumdrumDatabases/Palestrina/license.txt
!!!EMD: converted to Humdrum by Bret Aarden
